X:84
T:Lark in the Morning
Z: id:dc-jig-68
M:6/8
L:1/8
K:D Major
A|AFA AFA|BGB BdB|AFA A2e|fed BdB|!
AFA AFA|BGB BdB|def afe|dBB B2:|!
A|def a3|baf afe|def afe|dBB B2A|!
def a3|baf a2f|g3 f3|edB B2:|!
A|def fef|fef fef|def fef|edB B2A|!
def fef|fef fef|g3 f3|edB B2:|!
A|Add fdd|edd fdd|Add fdd|edB B2A|!
Add fdd|edd fef|g3 f3|edB B2:|!